vendor/shopware/storefront/Resources/app/storefront/dist/assets/icon/solid/rule.svg

<svg xmlns="http://www.w3.org/2000/svg" width="16" height="16" viewBox="0 0 16 16">
  <path fill="#758CA3" fill-rule="evenodd" d="M3.00043811,2 L5.32961772,6.65835921 C5.75190896,7.50294169 5.75190896,8.49705831 5.32961772,9.34164079 L3.00043811,14 L11.0283022,14 L13.8046954,8.4472136 C13.9454591,8.1656861 13.9454591,7.8343139 13.8046954,7.5527864 L11.0283022,2 L3.00043811,2 Z M3.00043811,-1.02140518e-14 L11.0283022,-8.8817842e-15 C11.7858463,-8.34810846e-15 12.4783725,0.428004752 12.8171565,1.10557281 L15.5935497,6.65835921 C16.015841,7.50294169 16.015841,8.49705831 15.5935497,9.34164079 L12.8171565,14.8944272 C12.4783725,15.5719952 11.7858463,16 11.0283022,16 L3.00043811,16 C1.89586861,16 1.00043811,15.1045695 1.00043811,14 C1.00043811,13.6895098 1.0727283,13.3832837 1.21158373,13.1055728 L3.54076334,8.4472136 C3.68152708,8.1656861 3.68152708,7.8343139 3.54076334,7.5527864 L1.21158373,2.89442719 C0.717605234,1.9064702 1.11805393,0.705124115 2.10601092,0.211145618 C2.38372179,0.0722901835 2.68994792,-1.01570157e-14 3.00043811,-1.02140518e-14 Z"/>
</svg>

<svg xmlns="http://www.w3.org/2000/svg" width="16" height="16" viewBox="0 0 16 16"><path fill="#758CA3" fill-rule="evenodd" d="m3.0004 2 2.3292 4.6584a3 3 0 0 1 0 2.6832L3.0004 14h8.0279l2.7764-5.5528a1 1 0 0 0 0-.8944L11.0283 2H3.0004zm0-2h8.0279a2 2 0 0 1 1.7889 1.1056l2.7763 5.5528a3 3 0 0 1 0 2.6832l-2.7763 5.5528A2 2 0 0 1 11.0283 16H3.0004c-1.1045 0-2-.8954-2-2a2 2 0 0 1 .2112-.8944l2.3292-4.6584a1 1 0 0 0 0-.8944L1.2116 2.8944C.7176 1.9064 1.118.7051 2.106.2111A2 2 0 0 1 3.0004 0z"/></svg>
